X: 448
T: A Tune For The Cat On My Street
R: jig
M: 6/8
K: Gmajor
|:BAB d3|GAG BGD|E3 EcB|AGA Bcd|
BAB d3|GFG BGD|EcB AGA|BGF G2d:|
|:ded ded|AGA BGD|ded ded|AGA Bcd|
ded def|gdB AGA|BGD EcB|1 AGF G2d:|2 AGF G3||

